X: 15
T:Morfa Rhuddlan
T:The Marsh of Rhuddlan
M:3/4
L:1/8
Q:200
C:Trad
S:51 Welsh Airs
R:Waltz
A:Wales
H:From a facsimile c.1840: A Choice Collection of Fifty-One Welsh Airs
H:adapted for The Harp, Piano-Forte, Harpsichord,
H:Violin, or Flute by Edward Jones
H:"Harper to His Late Majesty King George IV, when
H:Prince of Wales".
Z:brian_martin12345@yahoo.com
K:Gm
"Elegiac"
G2G2(Bd)|c2c2B2|A2AB AG|d2D2^F2|G2(GA) (Bd)|c2ed cB|A2G2^F2|{^F}G4z2:||!
d2 de fd|c2cd ec|B2B2A2|A2B2z2|
d2(de) (fe/d/)|c2(cd) (ed/c/)|(Be) (dc) (BA)|{A}B4c2|!
d2(Bc) (dB)|cB AB cA|B>A GB AG|(^F2D2)z2|
G2GA Bd|(c>d) ed cB|A2G2 {B}A^F|G6:||

